dist/img/admin_spacer.svg

<svg width="27" height="28" viewBox="0 0 27 28" fill="none" xmlns="http://www.w3.org/2000/svg">
<path d="M26.2533 15.2539C26.417 15.4591 26.6049 15.7443 26.8167 16.1094L26.6849 16.1494C26.5413 15.8875 26.3907 15.6609 26.2335 15.4691C26.0759 15.2774 25.8802 15.0868 25.6457 14.8977C25.0539 14.4208 24.4046 14.0917 23.6972 13.9105C23.8102 14.7151 23.6119 15.4389 23.1022 16.0818C22.7024 16.5863 22.1958 16.9681 21.5824 17.2276C20.9691 17.4872 20.3126 17.6231 19.6133 17.6343C18.9134 17.6461 18.2051 17.5327 17.4875 17.2945C16.7695 17.0561 16.1113 16.6953 15.5127 16.213C15.2486 16 15.042 15.8095 14.8924 15.6411C14.7431 15.4726 14.5945 15.2714 14.4473 15.0379C14.2693 15.0738 14.1293 15.1035 14.0271 15.1272C13.9253 15.1511 13.7671 15.1825 13.5528 15.2214C13.3122 15.2719 13.0972 15.3108 12.9086 15.3381C12.7197 15.3652 12.5423 15.3889 12.3757 15.4095C12.2088 15.4301 12.0441 15.448 11.8813 15.4636C11.7186 15.4792 11.5427 15.5002 11.3543 15.5273L10.9898 15.5758L10.7844 15.5818C11.1067 16.3144 11.2742 16.9305 11.2879 17.4306C11.301 17.9305 11.162 18.3648 10.8702 18.7327C10.5075 19.1903 10.0135 19.3866 9.38763 19.3219C8.76199 19.2571 8.09713 18.9409 7.39342 18.3735C7.08726 18.1267 6.82465 17.8618 6.60528 17.58C6.3863 17.2973 6.19612 16.9938 6.03588 16.6688C5.95043 16.5024 5.86436 16.3104 5.77729 16.0936C5.68989 15.8767 5.58747 15.5895 5.46882 15.2331C4.7436 15.0723 4.06597 14.8563 3.43692 14.5854C2.80736 14.314 2.26822 13.9975 1.8195 13.6358C1.23826 13.167 0.871504 12.7011 0.720127 12.2385C0.56866 11.7758 0.641859 11.3566 0.939788 10.9807C1.26914 10.5651 1.83692 10.3904 2.64356 10.4571C3.44995 10.5237 4.47223 10.797 5.71116 11.2768L5.9989 11.3874C6.09824 11.2405 6.17576 11.1325 6.23069 11.0633C6.29322 10.9842 6.35191 10.91 6.40712 10.8407C6.98716 10.1087 7.67396 9.53137 8.46746 9.1091C9.26092 8.68702 10.2478 8.38413 11.428 8.20059C12.3401 8.06044 13.1989 8.00315 14.0046 8.02844C14.8105 8.05407 15.6504 8.16798 16.5246 8.3701C18.4987 8.82705 20.1523 9.59277 21.4862 10.6681C22.0865 11.1526 22.5721 11.6454 22.9426 12.1465C23.3125 12.6477 23.5462 13.1319 23.6432 13.599C24.4239 13.8563 25.095 14.2105 25.6562 14.6629C25.8905 14.8522 26.0897 15.0492 26.2533 15.2539ZM1.05147 12.311C1.19606 12.6872 1.51355 13.0728 2.00299 13.4676C2.4315 13.8129 2.90111 14.0905 3.4123 14.3C3.9233 14.5092 4.58722 14.7 5.40391 14.8721C5.28759 14.2593 5.26713 13.6837 5.34329 13.1449C5.41912 12.6064 5.59288 12.0813 5.86384 11.5703C5.38539 11.3304 4.90223 11.1436 4.41479 11.01C3.92711 10.8763 3.46995 10.7993 3.04289 10.7793C2.61563 10.7592 2.23673 10.7943 1.90638 10.8842C1.57545 10.9744 1.33203 11.1186 1.1754 11.3166C0.947716 11.6036 0.906406 11.9351 1.05147 12.311ZM19.2469 9.55574C18.3774 9.15482 17.4542 8.84386 16.4756 8.62241C15.6207 8.43592 14.8025 8.33949 14.0213 8.33386C13.2399 8.3282 12.4123 8.4024 11.5377 8.55673C10.4049 8.76187 9.45008 9.07067 8.67297 9.48168C7.89581 9.89263 7.23665 10.4396 6.69568 11.1222C6.63281 11.2013 6.58304 11.2745 6.54632 11.3423C6.50933 11.4099 6.4529 11.5021 6.377 11.6193C6.80681 11.8362 7.16722 12.046 7.45846 12.2479C7.74946 12.4503 8.08376 12.7037 8.46104 13.0079C8.69569 13.1971 8.9004 13.3661 9.07485 13.5147C9.24916 13.6636 9.40535 13.8099 9.54274 13.9531C9.6801 14.0963 9.81142 14.2465 9.93702 14.4047C10.0623 14.5628 10.1833 14.7369 10.2997 14.9279C10.3715 14.9213 10.4276 14.9138 10.4679 14.9057C10.5076 14.8975 10.5456 14.8916 10.5819 14.8882C10.6979 14.8684 10.8456 14.8452 11.0249 14.8198C11.2042 14.7938 11.4187 14.7604 11.6689 14.719C11.9011 14.6793 12.1018 14.6421 12.2709 14.6084C12.4396 14.5743 12.577 14.5431 12.6832 14.515L13.729 14.2396L13.9691 14.19C13.5681 13.2827 13.6222 12.5079 14.1318 11.8648C14.4299 11.4887 14.8112 11.229 15.2765 11.085C15.7415 10.9411 16.2461 10.9265 16.7906 11.0411L16.7661 11.1672C16.2779 11.0656 15.8228 11.0918 15.4002 11.2453C14.9772 11.3992 14.6247 11.6541 14.3426 12.0102C13.8641 12.6136 13.8144 13.3197 14.1939 14.1279L14.4997 14.0582L15.5844 13.7655C15.7779 13.7112 15.9833 13.6578 16.2003 13.6055C16.417 13.5532 16.6543 13.5016 16.9126 13.4503C17.6169 13.321 18.2325 13.2295 18.7599 13.1763C19.2868 13.1231 19.8487 13.1098 20.4457 13.1372C20.7028 13.15 20.9517 13.1682 21.1925 13.1918C21.4328 13.2155 21.6776 13.2388 21.9272 13.2616C22.2048 13.2908 22.4302 13.3228 22.6037 13.357C22.7771 13.3915 23.0099 13.4456 23.3028 13.5195C23.0896 12.5856 22.4987 11.7278 21.5299 10.9465C20.877 10.4203 20.116 9.95669 19.2469 9.55574ZM7.4038 12.4593C7.04484 12.2265 6.66052 12.0099 6.2511 11.8096C6.07226 12.1193 5.93238 12.4121 5.83141 12.687C5.73014 12.9622 5.65952 13.2626 5.6197 13.587C5.57824 13.8293 5.56232 14.0391 5.57188 14.2171C5.58141 14.3948 5.60738 14.647 5.6496 14.973C6.05034 15.0369 6.35934 15.0792 6.57705 15.1004C6.79401 15.1215 7.04417 15.1329 7.32771 15.1342C7.67496 15.1386 8.03047 15.1332 8.39363 15.1182C8.75693 15.1028 9.21148 15.0562 9.7584 14.978L10.0678 14.9358C9.8426 14.608 9.61799 14.3218 9.3946 14.0766C9.17065 13.8315 8.88044 13.5649 8.52357 13.2771C8.13593 12.9645 7.76266 12.692 7.4038 12.4593ZM8.57085 15.6378C8.28659 15.6275 8.01038 15.6118 7.74309 15.5908C7.47547 15.5696 7.20212 15.54 6.92364 15.5016C6.64456 15.4631 6.34066 15.4086 6.01234 15.3384L5.77327 15.2916C5.94042 15.9455 6.16665 16.5088 6.4523 16.9822C6.73747 17.4554 7.10968 17.877 7.56848 18.2473C8.14992 18.716 8.69862 18.9518 9.21479 18.9544C9.73082 18.9568 10.1654 18.736 10.5181 18.2907C10.7847 17.9545 10.919 17.5478 10.9208 17.0709C10.9227 16.594 10.7962 16.1152 10.5421 15.6345C10.2972 15.6479 10.1085 15.6537 9.97631 15.6524C9.84323 15.6511 9.68604 15.6495 9.50314 15.648C9.1656 15.6516 8.85487 15.6482 8.57085 15.6378ZM20.177 13.6502C19.9395 13.6858 19.6779 13.7262 19.3919 13.7708C19.1336 13.8223 18.9 13.8693 18.6911 13.9113C18.482 13.9536 18.269 14.001 18.0525 14.053C17.8351 14.1052 17.5971 14.1685 17.3375 14.2428C17.078 14.3174 16.7632 14.4083 16.394 14.5157C16.2003 14.5705 16.0304 14.6155 15.8846 14.6523C15.7386 14.6887 15.6062 14.7238 15.4874 14.7577C15.3687 14.7918 15.2499 14.8255 15.1312 14.8593C15.0122 14.8934 14.8688 14.9319 14.7012 14.9747C14.8886 15.2231 15.0465 15.4199 15.1749 15.5636C15.3029 15.7074 15.454 15.8494 15.6275 15.9892C16.7596 16.9023 18.0154 17.258 19.3954 17.0573C19.7173 17.0091 20.0399 16.9288 20.3635 16.8166C20.6864 16.704 20.9991 16.5627 21.301 16.3929C21.6028 16.2228 21.8838 16.0315 22.1438 15.8198C22.4035 15.6078 22.6277 15.3831 22.8159 15.1457C23.0121 14.8985 23.1419 14.687 23.2059 14.5115C23.2697 14.3358 23.3047 14.0967 23.3111 13.7936C22.9617 13.7063 22.5562 13.6433 22.095 13.6036C21.633 13.5637 21.1987 13.5582 20.7918 13.5866C20.6191 13.5933 20.4142 13.6144 20.177 13.6502Z" fill="#F6D4BA" fill-opacity="0.9"/>
<path d="M17.0256 11.0524C17.0294 11.253 16.8699 11.4127 16.6691 11.4089C16.4685 11.4051 16.3026 11.2392 16.2988 11.0384C16.2951 10.838 16.4547 10.6783 16.6551 10.6822C16.8559 10.686 17.0216 10.8519 17.0256 11.0524Z" fill="#69DBEF"/>
</svg>

<svg width="27" height="28" fill="none" xmlns="http://www.w3.org/2000/svg"><path d="M26.253 15.254c.164.205.352.49.564.855l-.132.04a4.436 4.436 0 00-.451-.68 4.04 4.04 0 00-.588-.571 5.091 5.091 0 00-1.949-.987 2.747 2.747 0 01-.595 2.17c-.4.505-.906.887-1.52 1.147-.613.26-1.27.395-1.969.406a6.373 6.373 0 01-2.125-.34 6.28 6.28 0 01-1.975-1.081 5.248 5.248 0 01-.62-.572 4.646 4.646 0 01-.446-.603c-.178.036-.318.066-.42.09-.102.023-.26.054-.474.093-.24.05-.456.09-.644.117-.19.027-.367.05-.533.072-.167.02-.332.038-.495.054-.162.015-.338.036-.527.063l-.364.049-.206.006c.323.732.49 1.348.504 1.849.013.5-.126.934-.418 1.302-.362.457-.856.654-1.482.589-.626-.065-1.29-.381-1.995-.948a4.848 4.848 0 01-.788-.794 5.341 5.341 0 01-.57-.911 6.892 6.892 0 01-.258-.575c-.087-.217-.19-.505-.308-.86a11.325 11.325 0 01-2.032-.649 6.94 6.94 0 01-1.617-.95c-.582-.468-.948-.934-1.1-1.396-.151-.463-.078-.882.22-1.258.33-.416.897-.59 1.704-.524.806.067 1.828.34 3.067.82l.288.11c.1-.146.177-.255.232-.324.062-.079.12-.153.176-.222a6.518 6.518 0 012.06-1.732c.794-.422 1.78-.725 2.961-.908.912-.14 1.77-.198 2.577-.173.805.026 1.645.14 2.52.342 1.974.457 3.627 1.223 4.961 2.298.6.485 1.086.977 1.457 1.479.37.5.603.985.7 1.452.78.257 1.452.611 2.013 1.064.235.19.434.386.597.59zM1.051 12.31c.145.376.463.762.952 1.157.429.345.898.623 1.41.832.51.21 1.174.4 1.99.572a5.276 5.276 0 01-.06-1.727c.076-.539.25-1.064.52-1.575a7.875 7.875 0 00-1.448-.56 6.328 6.328 0 00-1.372-.23 3.677 3.677 0 00-1.137.104c-.33.09-.574.235-.73.433-.228.287-.27.618-.125.994zm18.196-2.755a14 14 0 00-2.771-.934 11.925 11.925 0 00-2.455-.288 13.738 13.738 0 00-2.483.223c-1.133.205-2.088.514-2.865.925a6.182 6.182 0 00-1.977 1.64 1.6 1.6 0 00-.15.22c-.037.068-.093.16-.169.277.43.217.79.427 1.081.629.291.202.626.456 1.003.76.235.19.44.358.614.507a6.402 6.402 0 01.862.89c.125.158.246.332.363.523a1.68 1.68 0 00.168-.022 16.056 16.056 0 01.557-.086 22.567 22.567 0 001.246-.211c.169-.035.306-.066.412-.094l1.046-.275.24-.05c-.4-.907-.347-1.682.163-2.325a2.29 2.29 0 011.145-.78c.465-.144.97-.159 1.514-.044l-.025.126a2.461 2.461 0 00-1.366.078 2.35 2.35 0 00-1.057.765c-.479.604-.529 1.31-.15 2.118l.307-.07 1.084-.293a17.196 17.196 0 011.329-.315c.704-.129 1.32-.22 1.847-.274a11.535 11.535 0 011.686-.039c.257.013.506.031.746.055s.486.047.735.07c.278.029.503.06.677.095.173.035.406.089.699.163-.213-.934-.804-1.792-1.773-2.573a10.884 10.884 0 00-2.283-1.391zM7.404 12.459a11 11 0 00-1.153-.65 5.71 5.71 0 00-.42.878 4.019 4.019 0 00-.211.9 2.883 2.883 0 00-.048.63c.01.178.035.43.078.756.4.064.71.106.927.127.217.021.467.033.75.034.348.005.703 0 1.067-.016a14.21 14.21 0 001.364-.14l.31-.042a8.013 8.013 0 00-.673-.86 7.935 7.935 0 00-.871-.799 13.488 13.488 0 00-1.12-.818zm1.167 3.179c-.284-.01-.56-.026-.828-.047a12.664 12.664 0 01-1.73-.252l-.24-.047c.167.653.394 1.217.68 1.69.284.473.657.895 1.115 1.265.582.469 1.13.705 1.647.707.516.003.95-.218 1.303-.663.267-.337.401-.743.403-1.22.002-.477-.125-.956-.379-1.437-.245.014-.434.02-.566.018-.133 0-.29-.002-.473-.004-.337.004-.648 0-.932-.01zm11.606-1.988l-.785.12-.7.141a18.13 18.13 0 00-1.355.332c-.259.074-.574.165-.943.273-.194.054-.364.1-.51.136-.145.037-.278.072-.397.106l-.356.101a16.12 16.12 0 01-.43.116c.188.248.345.445.474.589.128.143.279.285.452.425 1.133.913 2.388 1.269 3.768 1.068.322-.048.645-.128.968-.24a5.99 5.99 0 001.78-.997c.26-.212.485-.437.673-.674.196-.248.326-.459.39-.635.064-.175.099-.414.105-.717a7.836 7.836 0 00-1.216-.19 8.383 8.383 0 00-1.918.046z" fill="#F6D4BA" fill-opacity=".9"/><path d="M17.026 11.052a.349.349 0 01-.357.357.38.38 0 01-.37-.37.347.347 0 01.356-.357c.2.004.367.17.37.37z" fill="#69DBEF"/></svg>
